X: 1
T: The Saltire Society Reel
T: 8 x 32R 3C (Roy Goldring)
P: Saltire Society Reel
M: 2/4
L: 1/16
S: AABB x 2
R: Polka / 2/4 Reel
C: Bill Clement
C: from Tim Barker, mods. by T. Traub 2-11-2004
K:D
|: fe|"D"d2a2 a2fe|d2f2 f4|"A"efge cdec|A2e2 e2fe|"D"d2a2 a2fe|d2f2 f4|"A"efge cdec|"D"d4 d2:|
|: fe|"D"d2f2 f2ed|"A"c2e2 e4|"G"BcdB "A"cdec|"D"d2f2 f2>e2|"D"d2f2 f2fe|"A"c2e2 e4|"G"BcdB "A"cdec|"D"d4 d2:|
